X:7
T: Fy Gar Rub Her O'er Wi' Strae
N: HA007
O: Europa, Mitteleuropa, Deutschland
N: Vorschläge, Bindungen weggelassen
M: 2/2
L: 1/8
K: Em
F | G3FE2B2 | ABGAF2ED
G3AB2d2 | BAGFE3
F | G3FE2B2 | ABGAF2ED
G3AB2d2 | BAGFE3
e | d2B2B2AG | FGAGGF
ED | d2B2B2d2 | edBde3
g | d2B2B2AG | FGAGGF
ED | G3AB2e2 | BAGFE3

